X:1
T:[ID 6-9]
T:[ID 6-9]
T:Bezeichnung standardisiert: Menuett Men\"uet 31.
T:Urheber unbekannt Datum in der hier transkribierten schriftlichen Quelle: 1775
C:Urheber unbekannt
C:Datum in der hier transkribierten schriftlichen Quelle: 1775
L:1/8
M:3/4
K:D
V:1 treble 
V:1
 fd F2 F2 | G2 FE F2 | c4 df | e2 ecdB | d3 edf | e2 ecdB | cdecdB | c6 :: F3 cdF | c2 e2 d2 | %10
 d3 efd | e2 g2 f2 | d3 efd | e2 g2 f2 |{e} d2 GFGE | F6 :| %16

